X: 93
T:Honeysuckle Schottische
M:4/4
L:1/8
K:F
=B,2|C>D (3FAc f2f2|e>fe>f d2=B,2|C>D (3EFG e2e2|d>ed>A c>d (3cAF|
C>D (3FAc f2f2|e>fe>f d2=B,2|C>D (3EFG e2d2|(3cdc (3BAG F2:|
|:F2|A2A2 B2=B2|c6A>B|c2=B>c d>c_B>A|G6C2|
G2G2 A2B2|d6c/=Bc/|b>ge>c =B>cd>c|A>d^c>d (3=cd=c (3AFD|
A2A2 B2=B2|c6A>B|c2=B>c d>c_B>A|G6C2|
G2G2 A2B2|d6c/=Bc/|b>ae>c (3cdc (3BAG|F6:|
